public/images/ai27.svg

<svg width="100" height="100" viewBox="0 0 100 100" fill="none" xmlns="http://www.w3.org/2000/svg">
<path d="M40.8449 35.5107C37.3332 33.4751 34.5889 30.3335 33.0375 26.5731C31.4862 22.8127 31.2144 18.6438 32.2645 14.7126C33.3145 10.7815 35.6276 7.30791 38.8451 4.83047C42.0627 2.35303 46.0048 1.01019 50.0603 1.01019C54.1157 1.01019 58.0578 2.35303 61.2754 4.83047C64.4929 7.30791 66.806 10.7815 67.856 14.7126C68.9061 18.6438 68.6343 22.8127 67.083 26.5731C65.5316 30.3335 62.7873 33.4751 59.2756 35.5107L53.7206 25.8637C55.118 25.054 56.2101 23.8042 56.8276 22.3081C57.4451 20.8121 57.5534 19.1533 57.1358 17.5892C56.7182 16.025 55.798 14.6429 54.5178 13.6571C53.2377 12.6713 51.6692 12.137 50.0556 12.137C48.4421 12.137 46.8736 12.6713 45.5934 13.6571C44.3133 14.6429 43.3931 16.025 42.9754 17.5892C42.5578 19.1533 42.6661 20.8121 43.2836 22.3081C43.9011 23.8042 44.9933 25.054 46.3906 25.8637L40.8449 35.5107Z" fill="#FF0101"/>
<path d="M80.3052 39.9825C83.8176 42.0177 86.5627 45.159 88.1148 48.9194C89.6669 52.6799 89.9392 56.8492 88.8895 60.7807C87.8398 64.7123 85.5267 68.1863 82.3091 70.6641C79.0914 73.142 75.149 74.485 71.0932 74.485C67.0374 74.485 63.095 73.142 59.8773 70.6641C56.6597 68.1863 54.3466 64.7123 53.2969 60.7807C52.2472 56.8492 52.5195 52.6799 54.0716 48.9194C55.6236 45.159 58.3688 42.0177 61.8812 39.9825L67.4282 49.6243C66.0308 50.434 64.9387 51.6838 64.3212 53.1798C63.7037 54.6759 63.5954 56.3346 64.013 57.8988C64.4306 59.463 65.3509 60.8451 66.631 61.8309C67.9111 62.8167 69.4796 63.351 71.0932 63.351C72.7068 63.351 74.2753 62.8167 75.5554 61.8309C76.8355 60.8451 77.7558 59.463 78.1734 57.8988C78.591 56.3346 78.4827 54.6759 77.8652 53.1798C77.2477 51.6838 76.1556 50.434 74.7582 49.6243L80.3052 39.9825Z" fill="#0101FF"/>
<path d="M47.8482 55.9942C47.8475 60.0647 46.5085 64.0212 44.0388 67.25C41.5691 70.4788 38.1067 72.7996 34.1887 73.8522C30.2707 74.9049 26.1161 74.6306 22.3692 73.0719C18.6224 71.5133 15.4928 68.7574 13.4658 65.2317C11.4388 61.706 10.6277 57.6076 11.1584 53.5721C11.6891 49.5367 13.5319 45.7898 16.4009 42.9125C19.2699 40.0353 23.0048 38.1886 27.0263 37.6588C31.0477 37.1291 35.131 37.9459 38.6428 39.9826L33.0878 49.6243C31.6904 48.8147 30.0659 48.4904 28.4661 48.7017C26.8664 48.9131 25.3808 49.6482 24.2398 50.7932C23.0989 51.9382 22.3662 53.4291 22.1556 55.0345C21.9449 56.6399 22.268 58.2703 23.0747 59.6727C23.8814 61.0751 25.1267 62.1711 26.6174 62.7909C28.108 63.4107 29.7609 63.5195 31.3194 63.1005C32.878 62.6815 34.2553 61.7581 35.2377 60.4735C36.22 59.1889 36.7526 57.6149 36.7527 55.9956L47.8482 55.9942Z" fill="#01FF01"/>
<path d="M54.1518 84.1179C55.067 83.4807 56.2494 83.3918 57.3261 83.5166C58.2426 83.6135 59.2134 83.9639 59.7544 84.7576C60.2345 85.4213 60.3681 86.2549 60.3747 87.0526C60.3747 89.4869 60.3747 91.9199 60.3747 94.353C59.5362 94.353 58.6985 94.353 57.8617 94.353C57.8617 92.05 57.8617 89.7484 57.8617 87.4508C57.8366 86.9477 57.8617 86.3664 57.4795 85.9788C57.0827 85.5421 56.4465 85.4571 55.8844 85.4611C55.2046 85.4611 54.4692 85.5739 53.9454 86.0451C53.4336 86.4832 53.2392 87.1893 53.2365 87.8424C53.2365 90.0139 53.2365 92.1854 53.2365 94.3556C52.3997 94.3556 51.5621 94.3556 50.7235 94.3556C50.7235 90.7718 50.7235 87.188 50.7235 83.6042C51.5462 83.6042 52.3693 83.6042 53.1929 83.6042C53.1929 84.2333 53.1267 84.8585 53.1082 85.4877C53.3741 84.978 53.6571 84.4417 54.1518 84.1179Z" fill="#050505"/>
<path d="M64.9219 79.4085C66.308 78.9412 67.7853 78.8775 69.2349 78.8231C70.6395 78.8231 72.1076 78.843 73.4197 79.4111C74.081 79.6899 74.5479 80.3004 74.7727 80.9747C75.1391 81.9822 75.1497 83.0733 75.1576 84.1338C74.1908 84.1338 73.2239 84.1338 72.2584 84.1338C72.2425 83.3878 72.2994 82.5516 71.8391 81.9171C71.3736 81.4393 70.6488 81.4406 70.0285 81.3676C68.772 81.3437 67.4639 81.2628 66.2603 81.6981C65.8265 81.8309 65.599 82.2715 65.5144 82.691C65.2671 83.8166 65.2657 84.978 65.2671 86.1261C65.2816 87.6605 65.2578 89.2175 65.5845 90.7267C65.6705 91.2789 66.177 91.6187 66.6849 91.7408C67.8594 92.0341 69.0855 91.9916 70.2851 91.92C70.9107 91.8377 71.6725 91.7965 72.0653 91.2205C72.4846 90.5329 72.4145 89.6874 72.392 88.9149C73.3681 88.9149 74.3437 88.9149 75.319 88.9149C75.3071 90.1347 75.2859 91.3943 74.8441 92.5491C74.7331 92.8531 74.5594 93.1302 74.3345 93.3624C74.1096 93.5945 73.8384 93.7765 73.5387 93.8964C72.3484 94.3769 71.035 94.4074 69.7679 94.4844C68.2985 94.5096 66.8106 94.4738 65.3742 94.13C64.5317 93.9096 63.6111 93.5221 63.221 92.6819C62.7223 91.5709 62.6311 90.3351 62.5028 89.1392C62.3957 87.5597 62.3269 85.9775 62.3705 84.3953C62.4459 83.1144 62.5623 81.7645 63.2514 80.6482C63.6125 80.0257 64.2553 79.6368 64.9219 79.4085Z" fill="#050505"/>
<path d="M75.7951 78.9612C76.8029 78.9612 77.8108 78.9333 78.8173 78.9758C79.7973 82.0964 80.874 85.1851 81.8593 88.3017C82.2442 89.4963 82.5206 90.7307 82.9174 91.924C83.3631 90.6365 83.6488 89.2985 84.0853 88.0083C85.0521 84.9939 86.0454 81.9888 87.0109 78.9745C88.0055 78.932 89.0028 78.9745 89.9987 78.9559V79.2864C88.3613 84.2944 86.7623 89.3157 85.1579 94.3357C83.6607 94.3663 82.1609 94.3702 80.661 94.3357C79.0699 89.2003 77.3955 84.0913 75.7951 78.9612Z" fill="#050505"/>
<path d="M24.7407 83.2113C24.5754 82.1321 24.3902 80.9548 23.6376 80.1186C22.9195 79.4191 21.905 79.1709 20.9488 79.001C19.3949 78.7904 17.8219 78.7615 16.2614 78.9147C15.071 79.0394 13.8093 79.2147 12.8226 79.9381C12.1176 80.4969 11.8849 81.418 11.6931 82.2556C11.3386 84.0501 11.3042 85.8925 11.3108 87.7163C11.369 89.0967 11.4233 90.5037 11.8505 91.831C12.0634 92.4668 12.3795 93.1225 12.9601 93.4942C13.8622 94.1007 14.9679 94.2906 16.0273 94.3967C17.5911 94.5439 19.1664 94.5154 20.7239 94.3118C21.782 94.1445 22.93 93.9136 23.7091 93.1252C24.4233 92.2358 24.5807 91.0545 24.7407 89.9608C24.9959 87.7182 24.9959 85.4538 24.7407 83.2113ZM21.5995 90.9934C21.2543 91.7381 20.3139 91.7991 19.605 91.908C18.1832 91.989 16.7071 92.0606 15.3276 91.6425C14.6915 91.4739 14.4904 90.789 14.3925 90.2143C14.128 88.5113 14.214 86.7792 14.2471 85.0629C14.3172 84.1006 14.3053 83.1024 14.6438 82.1879C15.0406 81.5747 15.8567 81.5242 16.5127 81.4207C17.8353 81.3145 19.1831 81.288 20.4898 81.5402C20.9964 81.6424 21.5942 81.8892 21.6894 82.4693C22.0862 84.0979 21.9936 85.7876 22.0095 87.4587C21.9672 88.6374 21.995 89.8612 21.5995 90.9934Z" fill="#050505"/>
<path d="M36.3652 84.8797C35.819 83.9373 34.6868 83.5896 33.6671 83.502C32.5746 83.4024 31.3988 83.502 30.4518 84.1046C30.018 84.37 29.723 84.8001 29.4056 85.189C29.4201 84.6581 29.4492 84.1271 29.4783 83.6042C28.6239 83.6042 27.7686 83.6042 26.9124 83.6042C26.9124 88.7365 26.9124 93.8689 26.9124 99.0013H29.5577V92.8C29.9161 93.3468 30.3513 93.8804 30.9742 94.1273C32.1315 94.6078 33.4515 94.5759 34.6524 94.2799C35.4367 94.0822 36.1695 93.5804 36.4882 92.8199C37.0463 91.5589 37.0715 90.1426 37.1006 88.7861C37.0556 87.4601 37.0173 86.0624 36.3652 84.8797ZM34.3971 90.3762C34.3151 91.0877 34.2014 92.0089 33.4211 92.285C32.5039 92.5959 31.5086 92.5847 30.5986 92.2531C29.7693 91.9027 29.6727 90.8952 29.5907 90.1134C29.5418 88.9188 29.4823 87.6791 29.8196 86.5137C29.9981 85.85 30.6832 85.5394 31.3128 85.4903C32.0535 85.4332 32.8365 85.4173 33.5295 85.7239C33.9686 85.9137 34.2001 86.3796 34.2781 86.8309C34.5082 87.995 34.4791 89.1976 34.3971 90.3762Z" fill="#050505"/>
<path d="M45.5283 92.2093C44.8445 92.5557 44.0457 92.4947 43.3037 92.4894C42.7032 92.4562 41.9929 92.3407 41.6583 91.7766C41.2615 91.0625 41.3673 90.2223 41.2827 89.4431H48.5187C48.4156 87.9326 48.5359 86.3133 47.7979 84.9302C47.1366 83.79 45.7016 83.5909 44.5139 83.4914C43.0868 83.4237 41.5644 83.4476 40.2643 84.1179C39.2062 84.6899 38.9126 85.9841 38.7777 87.0845C38.6237 88.481 38.6499 89.8917 38.8557 91.2815C39.0091 92.2106 39.2869 93.2725 40.1585 93.7928C41.2351 94.3875 42.5048 94.4485 43.7071 94.4844C45.0694 94.4578 46.593 94.3516 47.6577 93.3999C48.3666 92.7761 48.4804 91.7832 48.5121 90.8966C47.6657 90.8966 46.8192 90.8966 45.9727 90.8966C45.9172 91.3545 45.9172 91.9014 45.5283 92.2093ZM41.817 85.8169C42.5392 85.3762 43.4333 85.4651 44.244 85.4771C44.7466 85.5315 45.359 85.5607 45.6857 86.008C46.019 86.5588 45.9595 87.2331 45.9621 87.8517C44.4054 87.8517 42.85 87.8583 41.2946 87.8517C41.3118 87.1588 41.2576 86.3199 41.817 85.8169Z" fill="#050505"/>
</svg>

<svg xmlns="http://www.w3.org/2000/svg" width="100" height="100" fill="none"><path fill="#FF0101" d="M40.845 35.51a18.47 18.47 0 0 1-7.807-8.937 18.55 18.55 0 0 1-.773-11.86 18.5 18.5 0 0 1 6.58-9.883A18.38 18.38 0 0 1 50.06 1.01c4.056 0 7.998 1.343 11.215 3.82a18.5 18.5 0 0 1 6.581 9.883c1.05 3.93.778 8.1-.773 11.86a18.47 18.47 0 0 1-7.807 8.938l-5.555-9.647a7.35 7.35 0 0 0 3.107-3.556 7.38 7.38 0 0 0 .308-4.719 7.36 7.36 0 0 0-2.618-3.932 7.31 7.31 0 0 0-8.925 0 7.36 7.36 0 0 0-2.618 3.932 7.38 7.38 0 0 0 .309 4.72 7.35 7.35 0 0 0 3.107 3.555z"/><path fill="#0101FF" d="M80.305 39.983a18.47 18.47 0 0 1 7.81 8.936 18.55 18.55 0 0 1 .775 11.862 18.5 18.5 0 0 1-6.58 9.883 18.38 18.38 0 0 1-11.217 3.821 18.38 18.38 0 0 1-11.216-3.82 18.5 18.5 0 0 1-6.58-9.884c-1.05-3.932-.777-8.101.775-11.862a18.47 18.47 0 0 1 7.81-8.936l5.546 9.641a7.35 7.35 0 0 0-3.107 3.556 7.38 7.38 0 0 0-.308 4.719 7.36 7.36 0 0 0 2.618 3.932 7.31 7.31 0 0 0 8.924 0 7.36 7.36 0 0 0 2.618-3.932 7.38 7.38 0 0 0-.308-4.72 7.35 7.35 0 0 0-3.107-3.555z"/><path fill="#01FF01" d="M47.848 55.994c0 4.07-1.34 8.027-3.81 11.256a18.42 18.42 0 0 1-9.85 6.602 18.36 18.36 0 0 1-11.819-.78 18.45 18.45 0 0 1-8.903-7.84 18.545 18.545 0 0 1 2.935-22.32 18.37 18.37 0 0 1 22.242-2.93l-5.555 9.642a7.31 7.31 0 0 0-8.848 1.17 7.378 7.378 0 0 0-1.165 8.88 7.34 7.34 0 0 0 3.542 3.117c1.491.62 3.144.729 4.702.31a7.33 7.33 0 0 0 3.919-2.627 7.37 7.37 0 0 0 1.515-4.478z"/><path fill="#050505" d="M54.152 84.118c.915-.637 2.097-.726 3.174-.601.917.097 1.887.447 2.428 1.24.48.664.614 1.498.62 2.296v7.3h-2.512v-6.902c-.025-.503 0-1.085-.383-1.472-.396-.437-1.032-.522-1.595-.518-.68 0-1.415.113-1.939.584-.511.438-.706 1.144-.709 1.797v6.514h-2.512V83.604h2.469c0 .63-.066 1.255-.085 1.884.266-.51.55-1.046 1.044-1.37M64.922 79.409c1.386-.468 2.863-.532 4.313-.586 1.404 0 2.873.02 4.185.588.661.279 1.128.89 1.353 1.564.366 1.007.377 2.098.385 3.159h-2.9c-.015-.746.041-1.582-.419-2.217-.465-.478-1.19-.476-1.81-.55-1.257-.023-2.565-.104-3.769.331-.434.133-.661.574-.746.993-.247 1.126-.248 2.287-.247 3.435.015 1.534-.01 3.091.318 4.6.086.553.592.893 1.1 1.015 1.174.293 2.4.25 3.6.179.626-.082 1.388-.124 1.78-.7.42-.687.35-1.533.327-2.305h2.927c-.012 1.22-.033 2.48-.475 3.634a2.3 2.3 0 0 1-1.305 1.347c-1.19.48-2.504.511-3.771.588-1.47.026-2.957-.01-4.394-.354-.842-.22-1.763-.608-2.153-1.448-.499-1.111-.59-2.347-.718-3.543-.107-1.58-.176-3.161-.133-4.744.076-1.28.192-2.63.881-3.747.361-.622 1.004-1.011 1.67-1.24M75.795 78.961c1.008 0 2.016-.028 3.022.015.98 3.12 2.057 6.21 3.042 9.326.385 1.194.662 2.429 1.058 3.622.446-1.288.732-2.626 1.168-3.916.967-3.014 1.96-6.02 2.926-9.033.995-.043 1.992 0 2.988-.02v.331c-1.638 5.008-3.237 10.03-4.841 15.05-1.497.03-2.997.034-4.497 0C79.07 89.2 77.395 84.09 75.795 78.96M24.74 83.211c-.165-1.079-.35-2.256-1.102-3.092-.719-.7-1.733-.948-2.69-1.118a20.2 20.2 0 0 0-4.687-.086c-1.19.124-2.452.3-3.438 1.023-.705.559-.938 1.48-1.13 2.318-.354 1.794-.389 3.636-.382 5.46.058 1.38.112 2.788.54 4.115.212.636.528 1.291 1.11 1.663.901.607 2.007.797 3.066.903 1.564.147 3.14.118 4.697-.085 1.058-.168 2.206-.398 2.985-1.187.714-.89.872-2.07 1.032-3.164a30 30 0 0 0 0-6.75m-3.14 7.782c-.346.745-1.286.806-1.995.915-1.422.081-2.898.153-4.277-.266-.636-.168-.838-.853-.935-1.428-.265-1.703-.179-3.435-.146-5.151.07-.962.058-1.96.397-2.875.397-.613 1.213-.664 1.869-.767 1.322-.107 2.67-.133 3.977.12.506.101 1.104.348 1.2.928.396 1.629.304 3.319.32 4.99-.043 1.178-.015 2.402-.41 3.534M36.365 84.88c-.546-.943-1.678-1.29-2.698-1.378-1.092-.1-2.268 0-3.215.603-.434.265-.729.695-1.046 1.084.014-.53.043-1.062.072-1.585h-2.566v15.397h2.646V92.8c.358.547.793 1.08 1.416 1.327 1.158.48 2.478.449 3.678.153.785-.198 1.517-.7 1.836-1.46.558-1.261.584-2.677.613-4.034-.045-1.326-.084-2.724-.736-3.906m-1.968 5.496c-.082.712-.196 1.633-.976 1.909-.917.31-1.912.3-2.822-.032-.83-.35-.926-1.358-1.008-2.14-.05-1.194-.109-2.434.229-3.6.178-.663.863-.974 1.493-1.023.74-.057 1.524-.073 2.217.234.439.19.67.656.748 1.107.23 1.164.201 2.367.12 3.545M45.528 92.21c-.684.346-1.482.285-2.224.28-.6-.034-1.311-.15-1.646-.713-.397-.715-.29-1.555-.375-2.334h7.236c-.103-1.51.017-3.13-.721-4.513-.661-1.14-2.096-1.34-3.284-1.439-1.427-.067-2.95-.043-4.25.627-1.058.572-1.351 1.866-1.486 2.967a16.4 16.4 0 0 0 .078 4.197c.153.929.43 1.99 1.302 2.51 1.077.596 2.347.656 3.55.692 1.361-.026 2.885-.132 3.95-1.084.709-.624.822-1.617.854-2.503h-2.54c-.055.457-.055 1.004-.444 1.312m-3.711-6.393c.722-.44 1.616-.352 2.427-.34.503.054 1.115.084 1.442.531.333.55.273 1.225.276 1.844-1.557 0-3.112.006-4.667 0 .017-.693-.037-1.532.522-2.035"/></svg>
